;START_OF_HEADER
;HEADER_VERSION:0.1
;FLAVOR:Griffin
;GENERATOR.NAME:Cura_SteamEngine
;GENERATOR.VERSION:5.5.0
;GENERATOR.BUILD_DATE:2023-10-25
;TARGET_MACHINE.NAME:Ultimaker S5
;EXTRUDER_TRAIN.0.INITIAL_TEMPERATURE:205
;EXTRUDER_TRAIN.0.MATERIAL.VOLUME_USED:31732
;EXTRUDER_TRAIN.0.MATERIAL.GUID:44a029e6-e31b-4c9e-a12f-9282e29a92ff
;EXTRUDER_TRAIN.0.NOZZLE.DIAMETER:0.4
;EXTRUDER_TRAIN.0.NOZZLE.NAME:AA 0.4
;BUILD_PLATE.INITIAL_TEMPERATURE:60
;BUILD_VOLUME.TEMPERATURE:28
;PRINT.TIME:5948
;PRINT.GROUPS:1
;PRINT.SIZE.MIN.X:39.772
;PRINT.SIZE.MIN.Y:69.892
;PRINT.SIZE.MIN.Z:0.2
;PRINT.SIZE.MAX.X:290.227
;PRINT.SIZE.MAX.Y:170.106
;PRINT.SIZE.MAX.Z:6.6
;SLICE_UUID:44ed17e2-7890-4639-a656-3ee771f08681
;END_OF_HEADER
;Generated with Cura_SteamEngine 5.5.0
T0
M82 ;absolute extrusion mode

G92 E0
M190 S60
M109 S205
G280 S1
G0 Z20.001
G1 F2700 E-6.5
;LAYER_COUNT:23
;LAYER:0
M106 S255
M204 S2000
M205 X30 Y30
G1 F600 Z2.2
G0 F9000 X276.95 Y137.466 Z2.2
;TYPE:SKIRT
G1 F600 Z0.2
G1 F2700 E0
G1 F4080 X274.52 Y138.799 E0.03476
G1 X269.142 Y140.777 E0.10662
G1 X263.675 Y141.99 E0.17684
G1 X255.096 Y143.363 E0.28579
G1 X249.333 Y144.728 E0.36006
G1 X243.861 Y146.56 E0.43243
G1 X237.586 Y149.205 E0.51782
G1 X229.121 Y153.404 E0.63632
G1 X217.847 Y159.426 E0.79661
G1 X213.937 Y161.43 E0.8517
G1 X210.641 Y163.025 E0.89762
G1 X206.693 Y164.78 E0.9518
G1 X200.395 Y167.15 E1.03619
G1 X198.103 Y167.848 E1.06624
G1 X194.222 Y168.799 E1.11634
G1 X188.356 Y169.722 E1.19081
G1 X181.193 Y170.106 E1.28077
G1 X174.909 Y169.851 E1.35964
G1 X166.927 Y168.886 E1.46046
G1 X158.64 Y167.33 E1.5662
G1 X146.037 Y164.32 E1.72869
G1 X131.676 Y160.66 E1.91454
G1 X121.154 Y158.269 E2.04985
G1 X114.762 Y157.07 E2.13141
G1 X103.181 Y155.409 E2.27813
G1 X93.049 Y154.119 E2.40621
G1 X89.796 Y153.686 E2.44736
G1 X80.592 Y152.213 E2.56425
G1 X72.282 Y150.356 E2.67104
G1 X65.923 Y148.37 E2.75458
G1 X60.686 Y146.153 E2.82589
G1 X55.447 Y143.157 E2.90158
G1 X51.997 Y140.543 E2.95586
G1 X48.057 Y136.558 E3.02613
G1 X45.319 Y132.753 E3.08492
G1 X42.816 Y127.774 E3.1548
G1 X41.223 Y122.856 E3.21963
G1 X40.155 Y117.028 E3.29393
G1 X39.772 Y110.997 E3.36972
G1 X40.015 Y105.331 E3.44084
G1 X41.163 Y98.061 E3.53313
G1 X42.759 Y92.464 E3.60612
G1 X45.036 Y87.103 E3.67916
G1 X47.891 Y82.398 E3.74818
G1 X50.503 Y79.253 E3.79945
G1 X53.867 Y76.277 E3.85577
G1 X56.035 Y74.871 E3.88817
G1 X60.301 Y72.984 E3.94667
G1 X64.247 Y71.977 E3.99774
G1 X70.097 Y71.408 E4.07145
G1 X76.229 Y71.592 E4.14838
G1 X84.58 Y72.5 E4.25372
G1 X95.084 Y73.587 E4.38615
G1 X105.322 Y74.034 E4.51466
G1 X115.439 Y73.936 E4.64154
G1 X128.946 Y73.197 E4.81117
G1 X154.605 Y71.237 E5.13388
G1 X171.692 Y70.282 E5.3485
G1 X187.789 Y69.892 E5.55042
G1 X202.829 Y70.082 E5.73904
G1 X218.405 Y70.906 E5.93464
G1 X232.607 Y72.268 E6.11356
G1 X248.086 Y74.425 E6.30955
G1 X255.9 Y75.827 E6.4091
G1 X263.227 Y77.584 E6.50359
G1 X269.206 Y79.569 E6.58259
G1 X273.743 Y81.617 E6.64502
G1 X278.533 Y84.584 E6.71567
G1 X282.134 Y87.675 E6.77519
G1 X284.357 Y90.222 E6.81758
G1 X287.053 Y94.554 E6.88157
G1 X288.48 Y98 E6.92834
G1 X289.723 Y102.987 E6.99279
G1 X290.227 Y108.112 E7.05737
G1 X290.047 Y113.377 E7.12344
G1 X289.25 Y118.348 E7.18657
G1 X287.338 Y124.482 E7.26714
G1 X285.453 Y128.364 E7.32126
G1 X282.531 Y132.598 E7.38577
G1 X280.533 Y134.712 E7.42225
G1 X276.95 Y137.466 E7.47892
G0 F9000 X276.758 Y137.115
G1 F4080 X274.328 Y138.448 E7.51368
G1 X269.055 Y140.387 E7.58413
G1 X263.612 Y141.595 E7.65405
G1 X255.022 Y142.97 E7.76314
G1 X249.223 Y144.343 E7.83788
G1 X243.713 Y146.188 E7.91074
G1 X237.426 Y148.838 E7.9963
G1 X228.933 Y153.051 E8.11519
G1 X217.665 Y159.07 E8.27539
G1 X213.763 Y161.07 E8.33038
G1 X210.479 Y162.659 E8.37613
G1 X206.531 Y164.414 E8.43031
G1 X200.278 Y166.767 E8.51409
G1 X198.008 Y167.459 E8.54385
G1 X194.127 Y168.41 E8.59396
G1 X188.294 Y169.327 E8.66801
G1 X181.209 Y169.706 E8.75698
G1 X174.925 Y169.451 E8.83585
G1 X167.001 Y168.493 E8.93595
G1 X158.733 Y166.941 E9.04144
G1 X146.136 Y163.932 E9.20386
G1 X131.775 Y160.272 E9.38971
G1 X121.238 Y157.878 E9.52521
G1 X114.823 Y156.675 E9.60706
G1 X103.231 Y155.012 E9.75392
G1 X93.102 Y153.723 E9.88196
G1 X89.859 Y153.291 E9.92299
G1 X80.655 Y151.818 E10.03988
G1 X72.401 Y149.974 E10.14594
G1 X66.042 Y147.988 E10.22948
G1 X60.884 Y145.806 E10.29972
G1 X55.689 Y142.838 E10.37475
G1 X52.239 Y140.224 E10.42903
G1 X48.382 Y136.324 E10.49781
G1 X45.644 Y132.519 E10.5566
G1 X43.197 Y127.651 E10.62492
G1 X41.604 Y122.733 E10.68975
G1 X40.554 Y117.003 E10.7628
G1 X40.172 Y111.014 E10.83806
G1 X40.415 Y105.348 E10.90918
G1 X41.548 Y98.171 E11.0003
G1 X43.144 Y92.574 E11.07328
G1 X45.404 Y87.26 E11.1457
G1 X48.199 Y82.653 E11.21327
G1 X50.768 Y79.552 E11.26377
G1 X54.085 Y76.613 E11.31935
G1 X56.253 Y75.207 E11.35175
G1 X60.4 Y73.372 E11.40862
G1 X64.346 Y72.365 E11.45969
G1 X70.085 Y71.808 E11.532
G1 X76.186 Y71.99 E11.60854
G1 X84.537 Y72.898 E11.71388
G1 X95.059 Y73.987 E11.84654
G1 X105.309 Y74.434 E11.9752
G1 X115.443 Y74.336 E12.10229
G1 X128.976 Y73.596 E12.27225
G1 X154.627 Y71.636 E12.59486
G1 X171.702 Y70.682 E12.80932
G1 X187.784 Y70.292 E13.01105
G1 X202.808 Y70.481 E13.19948
G1 X218.367 Y71.304 E13.39486
G1 X232.552 Y72.664 E13.57357
G1 X248.015 Y74.819 E13.76935
G1 X255.829 Y76.221 E13.86891
G1 X263.101 Y77.964 E13.96268
G1 X269.041 Y79.934 E14.04116
G1 X273.578 Y81.982 E14.10359
G1 X278.272 Y84.888 E14.17282
G1 X281.873 Y87.979 E14.23233
G1 X284.055 Y90.485 E14.274
G1 X286.683 Y94.707 E14.33636
G1 X288.11 Y98.153 E14.38314
G1 X289.325 Y103.026 E14.44612
G1 X289.827 Y108.098 E14.51003
G1 X289.647 Y113.363 E14.5761
G1 X288.868 Y118.229 E14.6379
G1 X286.978 Y124.307 E14.71772
G1 X285.093 Y128.189 E14.77183
G1 X282.24 Y132.323 E14.83482
G1 X280.242 Y134.437 E14.8713
G1 X276.758 Y137.115 E14.92641
G0 F9000 X276.566 Y136.764
G1 F4080 X274.136 Y138.097 E14.96116
G1 X268.968 Y139.997 E15.03021
G1 X263.549 Y141.2 E15.09982
G1 X254.948 Y142.577 E15.20906
G1 X249.113 Y143.958 E15.28425
G1 X243.565 Y145.816 E15.35762
G1 X237.266 Y148.471 E15.44334
G1 X228.745 Y152.698 E15.56263
G1 X217.483 Y158.714 E15.72274
G1 X213.589 Y160.71 E15.77762
G1 X210.317 Y162.293 E15.8232
G1 X206.369 Y164.048 E15.87738
G1 X200.161 Y166.384 E15.96056
G1 X197.913 Y167.07 E15.99003
G1 X194.032 Y168.021 E16.04014
G1 X188.232 Y168.932 E16.11377
G1 X181.225 Y169.306 E16.20176
G1 X174.941 Y169.051 E16.28063
G1 X167.075 Y168.1 E16.37999
G1 X158.826 Y166.552 E16.48524
G1 X146.235 Y163.544 E16.64758
G1 X131.874 Y159.884 E16.83343
G1 X121.322 Y157.487 E16.96913
G1 X114.884 Y156.28 E17.05127
G1 X103.281 Y154.615 E17.19827
G1 X93.155 Y153.327 E17.32627
G1 X89.922 Y152.896 E17.36718
G1 X80.718 Y151.423 E17.48407
G1 X72.52 Y149.592 E17.58941
G1 X66.161 Y147.606 E17.67295
G1 X61.082 Y145.459 E17.7421
G1 X55.931 Y142.519 E17.81647
G1 X52.481 Y139.905 E17.87075
G1 X48.707 Y136.09 E17.93805
G1 X45.969 Y132.285 E17.99684
G1 X43.578 Y127.528 E18.0636
G1 X41.985 Y122.61 E18.12843
G1 X40.953 Y116.977 E18.20025
G1 X40.572 Y111.031 E18.27496
G1 X40.815 Y105.365 E18.34608
G1 X41.933 Y98.28 E18.43603
G1 X43.512 Y92.731 E18.50838
G1 X45.772 Y87.417 E18.5808
G1 X48.507 Y82.908 E18.64693
G1 X51.034 Y79.851 E18.69667
G1 X54.303 Y76.949 E18.75148
G1 X56.471 Y75.543 E18.78389
G1 X60.499 Y73.76 E18.83913
G1 X64.445 Y72.753 E18.8902
G1 X70.073 Y72.208 E18.96111
G1 X76.143 Y72.388 E19.03726
G1 X84.494 Y73.296 E19.1426
G1 X95.034 Y74.387 E19.27548
G1 X105.296 Y74.834 E19.40429
G1 X115.447 Y74.736 E19.5316
G1 X129.006 Y73.995 E19.70189
G1 X154.649 Y72.035 E20.0244
G1 X171.712 Y71.082 E20.23871
G1 X187.779 Y70.692 E20.44025
G1 X202.787 Y70.88 E20.62847
G1 X218.329 Y71.702 E20.82365
G1 X232.497 Y73.06 E21.00213
G1 X247.944 Y75.213 E21.19772
G1 X255.758 Y76.615 E21.29727
G1 X262.975 Y78.344 E21.39034
G1 X268.876 Y80.299 E21.46829
G1 X273.413 Y82.347 E21.53072
G1 X278.061 Y85.228 E21.59929
G1 X281.571 Y88.242 E21.65731
G1 X283.753 Y90.748 E21.69898
G1 X286.313 Y94.86 E21.75972
G1 X287.74 Y98.306 E21.8065
G1 X288.927 Y103.066 E21.86802
G1 X289.427 Y108.084 E21.93126
G1 X289.247 Y113.349 E21.99732
G1 X288.486 Y118.11 E22.05778
G1 X286.618 Y124.132 E22.13685
G1 X284.733 Y128.014 E22.19097
G1 X281.949 Y132.048 E22.25243
G1 X279.951 Y134.162 E22.28891
G1 X276.566 Y136.764 E22.34245
G0 F9000 X276.374 Y136.413
G1 F4080 X273.944 Y137.746 E22.37721
G1 X268.881 Y139.607 E22.44485
G1 X263.486 Y140.805 E22.51416
G1 X254.874 Y142.184 E22.62353
G1 X249.003 Y143.573 E22.69919
G1 X243.417 Y145.444 E22.77306
G1 X237.106 Y148.104 E22.85895
G1 X228.557 Y152.345 E22.97862
G1 X217.301 Y158.358 E23.13866
G1 X213.415 Y160.35 E23.19342
G1 X210.155 Y161.927 E23.23883
G1 X206.207 Y163.682 E23.29301
G1 X200.044 Y166.001 E23.37559
G1 X197.818 Y166.681 E23.40478
G1 X193.937 Y167.632 E23.45489
G1 X188.17 Y168.537 E23.52809
G1 X181.241 Y168.906 E23.61511
G1 X174.957 Y168.651 E23.69397
G1 X167.149 Y167.707 E23.7926
G1 X158.919 Y166.163 E23.89761
G1 X146.334 Y163.156 E24.05987
G1 X131.973 Y159.496 E24.24572
G1 X121.406 Y157.096 E24.38161
G1 X114.945 Y155.885 E24.46405
G1 X103.331 Y154.218 E24.61118
G1 X93.208 Y152.931 E24.73915
G1 X89.985 Y152.501 E24.77993
G1 X80.781 Y151.028 E24.89682
G1 X72.639 Y149.21 E25.00143
G1 X66.28 Y147.224 E25.08498
G1 X61.28 Y145.112 E25.15304
G1 X56.173 Y142.2 E25.22677
G1 X52.723 Y139.586 E25.28105
G1 X49.032 Y135.856 E25.34685
G1 X46.294 Y132.051 E25.40564
G1 X43.959 Y127.405 E25.47085
G1 X42.366 Y122.487 E25.53567
G1 X41.352 Y116.951 E25.60625
G1 X40.972 Y111.048 E25.68043
G1 X41.215 Y105.382 E25.75155
G1 X42.318 Y98.389 E25.84033
G1 X43.88 Y92.888 E25.91204
G1 X46.14 Y87.574 E25.98446
G1 X48.815 Y83.163 E26.04915
G1 X51.342 Y80.106 E26.09889
G1 X54.521 Y77.285 E26.15219
G1 X56.689 Y75.879 E26.18459
G1 X60.598 Y74.148 E26.2382
G1 X64.544 Y73.141 E26.28927
G1 X70.061 Y72.608 E26.35878
G1 X76.1 Y72.786 E26.43454
G1 X84.451 Y73.694 E26.53989
G1 X95.009 Y74.787 E26.67299
G1 X105.283 Y75.234 E26.80196
G1 X115.451 Y75.136 E26.92947
G1 X129.036 Y74.394 E27.10009
G1 X154.671 Y72.434 E27.4225
G1 X171.722 Y71.482 E27.63666
G1 X187.774 Y71.092 E27.83801
G1 X202.766 Y71.279 E28.02603
G1 X218.291 Y72.1 E28.221
G1 X232.442 Y73.456 E28.39927
G1 X247.873 Y75.607 E28.59465
G1 X255.687 Y77.009 E28.6942
G1 X262.849 Y78.724 E28.78656
G1 X268.711 Y80.664 E28.86399
G1 X273.248 Y82.712 E28.92641
G1 X277.85 Y85.568 E28.99433
G1 X281.269 Y88.505 E29.05086
G1 X283.451 Y91.011 E29.09253
G1 X285.943 Y95.013 E29.15165
G1 X287.37 Y98.459 E29.19842
G1 X288.529 Y103.106 E29.25848
G1 X289.027 Y108.07 E29.32104
G1 X288.847 Y113.335 E29.38711
G1 X288.091 Y118.047 E29.44695
G1 X286.258 Y123.957 E29.52455
G1 X284.373 Y127.839 E29.57867
G1 X281.658 Y131.773 E29.63861
G1 X279.66 Y133.887 E29.67509
G1 X276.374 Y136.413 E29.72706
G0 F9000 X276.181 Y136.063
G1 F4080 X273.806 Y137.371 E29.76106
G1 X268.794 Y139.217 E29.82804
G1 X263.423 Y140.41 E29.89704
G1 X254.8 Y141.791 E30.00655
G1 X248.893 Y143.188 E30.08267
G1 X243.269 Y145.072 E30.15705
G1 X236.946 Y147.737 E30.2431
G1 X228.369 Y151.992 E30.36317
G1 X217.119 Y158.002 E30.52312
G1 X213.241 Y159.99 E30.57776
G1 X209.992 Y161.562 E30.62303
G1 X206.066 Y163.308 E30.67691
G1 X199.927 Y165.618 E30.75916
G1 X197.723 Y166.292 E30.78807
G1 X193.842 Y167.243 E30.83818
G1 X188.108 Y168.142 E30.91096
G1 X181.257 Y168.506 E30.997
G1 X174.973 Y168.251 E31.07587
G1 X167.223 Y167.314 E31.17376
G1 X159.012 Y165.774 E31.27853
G1 X146.433 Y162.768 E31.44071
G1 X132.072 Y159.108 E31.62656
G1 X121.49 Y156.705 E31.76264
G1 X115.006 Y155.49 E31.84537
G1 X103.381 Y153.821 E31.99265
G1 X93.261 Y152.535 E32.12057
G1 X90.048 Y152.106 E32.16122
G1 X80.844 Y150.633 E32.27811
G1 X72.758 Y148.828 E32.38201
G1 X66.399 Y146.842 E32.46555
G1 X61.478 Y144.764 E32.53254
G1 X56.415 Y141.881 E32.60561
G1 X52.965 Y139.267 E32.65989
G1 X49.357 Y135.622 E32.7242
G1 X46.619 Y131.817 E32.78299
G1 X44.34 Y127.282 E32.84664
G1 X42.747 Y122.364 E32.91146
G1 X41.751 Y116.925 E32.98081
G1 X41.372 Y111.065 E33.05445
G1 X41.615 Y105.399 E33.12556
G1 X42.703 Y98.498 E33.21317
G1 X44.248 Y93.045 E33.28425
G1 X46.508 Y87.731 E33.35666
G1 X49.123 Y83.418 E33.41992
G1 X51.65 Y80.361 E33.46965
G1 X54.739 Y77.621 E33.52143
G1 X56.907 Y76.215 E33.55384
G1 X60.697 Y74.536 E33.60582
G1 X64.643 Y73.529 E33.65689
G1 X70.049 Y73.008 E33.725
G1 X76.057 Y73.184 E33.80037
G1 X84.408 Y74.092 E33.90572
G1 X94.984 Y75.187 E34.03905
G1 X105.27 Y75.634 E34.16816
G1 X115.455 Y75.536 E34.29589
G1 X129.067 Y74.793 E34.46685
G1 X154.693 Y72.833 E34.78915
G1 X171.732 Y71.882 E35.00315
G1 X187.769 Y71.492 E35.20432
G1 X202.745 Y71.678 E35.39214
G1 X218.253 Y72.498 E35.58689
G1 X232.387 Y73.852 E35.76495
G1 X247.802 Y76.001 E35.96013
G1 X255.616 Y77.403 E36.05968
G1 X262.723 Y79.104 E36.15132
G1 X268.546 Y81.029 E36.22823
G1 X273.083 Y83.077 E36.29066
G1 X277.59 Y85.872 E36.35716
G1 X280.967 Y88.768 E36.41295
G1 X283.149 Y91.274 E36.45462
G1 X285.573 Y95.166 E36.51212
G1 X287 Y98.612 E36.55889
G1 X288.131 Y103.146 E36.61749
G1 X288.627 Y108.056 E36.67938
G1 X288.447 Y113.321 E36.74544
G1 X287.696 Y117.983 E36.80466
G1 X285.898 Y123.782 E36.8808
G1 X284.013 Y127.664 E36.93491
G1 X281.367 Y131.498 E36.99333
G1 X279.369 Y133.612 E37.02981
G1 X276.181 Y136.063 E37.08024
G0 F9000 X275.987 Y135.713
G1 F4080 X273.667 Y136.996 E37.11348
G1 X268.707 Y138.827 E37.17979
G1 X263.36 Y140.015 E37.24847
G1 X254.726 Y141.398 E37.35813
G1 X248.783 Y142.803 E37.43471
G1 X243.121 Y144.7 E37.50959
G1 X236.786 Y147.37 E37.5958
G1 X228.181 Y151.639 E37.71626
G1 X216.937 Y157.646 E37.87613
G1 X213.067 Y159.63 E37.93067
G1 X209.829 Y161.197 E37.97578
G1 X205.925 Y162.934 E38.02936
G1 X199.81 Y165.235 E38.11129
G1 X197.606 Y165.909 E38.1402
G1 X193.78 Y166.848 E38.1896
G1 X188.046 Y167.747 E38.26239
G1 X181.273 Y168.106 E38.34744
G1 X174.989 Y167.851 E38.42631
G1 X167.297 Y166.921 E38.52347
G1 X159.105 Y165.385 E38.62799
G1 X146.532 Y162.38 E38.7901
G1 X132.171 Y158.72 E38.97595
G1 X121.574 Y156.314 E39.11223
G1 X115.067 Y155.095 E39.19525
G1 X103.431 Y153.424 E39.34266
G1 X93.314 Y152.139 E39.47055
G1 X90.111 Y151.711 E39.51108
G1 X80.907 Y150.238 E39.62797
G1 X72.877 Y148.446 E39.73114
G1 X66.554 Y146.473 E39.81421
G1 X61.676 Y144.416 E39.88059
G1 X56.657 Y141.562 E39.953
G1 X53.207 Y138.948 E40.00728
G1 X49.682 Y135.388 E40.07011
G1 X46.944 Y131.583 E40.12889
G1 X44.721 Y127.159 E40.19098
G1 X43.128 Y122.241 E40.25581
G1 X42.15 Y116.899 E40.32391
G1 X41.772 Y111.082 E40.39701
G1 X42.015 Y105.416 E40.46813
G1 X43.088 Y98.607 E40.55457
G1 X44.616 Y93.202 E40.62501
G1 X46.876 Y87.888 E40.69743
G1 X49.431 Y83.673 E40.75924
G1 X51.958 Y80.616 E40.80897
G1 X54.957 Y77.957 E40.85924
G1 X57.125 Y76.551 E40.89164
G1 X60.796 Y74.924 E40.942
G1 X64.742 Y73.917 E40.99307
G1 X70.037 Y73.408 E41.05977
G1 X76.014 Y73.582 E41.13476
G1 X84.365 Y74.49 E41.2401
G1 X94.959 Y75.587 E41.37366
G1 X105.257 Y76.034 E41.50293
G1 X115.459 Y75.936 E41.63087
G1 X129.098 Y75.192 E41.80216
G1 X154.715 Y73.232 E42.12435
G1 X171.742 Y72.282 E42.3382
G1 X187.764 Y71.892 E42.53919
G1 X202.724 Y72.077 E42.7268
G1 X218.215 Y72.896 E42.92134
G1 X232.332 Y74.248 E43.09918
G1 X247.731 Y76.395 E43.29416
G1 X255.545 Y77.797 E43.39371
G1 X262.598 Y79.484 E43.48465
G1 X268.382 Y81.394 E43.56104
G1 X272.872 Y83.417 E43.6228
G1 X277.33 Y86.176 E43.68854
G1 X280.665 Y89.031 E43.7436
G1 X282.847 Y91.537 E43.78527
G1 X285.203 Y95.319 E43.84114
G1 X286.63 Y98.765 E43.88792
G1 X287.733 Y103.186 E43.94506
G1 X288.227 Y108.043 E44.00628
G1 X288.052 Y113.257 E44.0717
G1 X287.301 Y117.919 E44.13092
